X:1
T:Title
%%score { ( 1 5 6 ) | ( 2 3 4 ) }
L:1/8
M:3/4
K:Ab
V:1 treble nm="Grand Piano"
V:5 treble 
V:6 treble 
V:2 bass 
V:3 bass 
V:4 bass 
V:1
 z2 z2[Q:1/4=90] E2 | [CE]3 c cd | c>B [DB]3 [DB] | [DB]3 [C=A] [DB]c | [CA]4 [EG]2 | %5
 [DF]3 [EG] [FA][DF] | [DF]>E E2 c2 | [Ac]3 [AB] [=DF]c | [B,GB]4 F2 | [G,DE]3 [EG] [GB][Bd] | %10
 [Ac]>[CA] [Ec]2 c2 | z G z c =dd | [Ge]4 [df]2 | [ce]3 d cE | [_GB]>A [FA]2 [FB]2 | c3 A AB | %16
[M:2/4] [CA]4 |[M:1/4] [CFA]2 |[M:3/4] [CFA]>[C=EG] [CEG]2 [CGB]2 | [CGB]>[CFA] [CFA]2 [CAc]2 | %20
 [Ac]>[GB] [GB]2 [Bd]2 | [Bd]>c c2 c[Bd] | [ce][_c=d] [_df][=ce] [Bd]c | Bc [Fd]3 [Fd] | c3 A AB | %25
[M:2/4] [CA]4 |] %26
V:2
 z2 z2 C2 | z2 z[K:treble] E EF | E>D G,4 | .[E,G,]2 F,_G, z E | A,,4 C,2 | [D,A,]4 [D,A,]2 | %6
 z z/ C/ C2 E2 | [F,A,]4 z A | E,4 D2 | z2 z B, DG, | [A,,A,]2 [A,,A,]2 [G,B,=E]2 | %11
 .[A,F]2 C2 [B,,B,]2 | B,4 G,2 | z2 z[K:treble] B AC | A,->[A,-_G] [D,A,-]2 [=D,A,]2 | %15
 E3 C [F,D][G,D] |[M:2/4] [A,,E,A,]4 |[M:1/4] A,,2 |[M:3/4] C,>C, C,2 =E,2 | F,>F, F,2 F,2 | %20
 [E,E]>[E,E] [E,E]2 [E,E]2 | [A,E]>[A,EA] [A,EA]2 [A,A][A,B,A] | %22
 [A,CA][A,_CA] [A,DA][A,=CA] [A,B,A][A,A] | [A,G][A,_G][K:bass] [D,A,]3 [D,A,] | %24
 [E,A,E]3 [E,C] [E,F,D][E,G,D] |[M:2/4] [A,,A,]4 |] %26
V:3
 x6 | [A,,A,]6[K:treble] | [E,-A,]2 E,4 | z2 z2 =G,2 | x6 | x6 | [A,,A,]6 | z2 z2 [B,,B,]2 | x6 | %9
 E,6 | x6 | F,4 z2 | E,6 | [A,,A,]6[K:treble] | C,2 z2 z2 | [E,-A,]4 E,2 |[M:2/4] x4 |[M:1/4] x2 | %18
[M:3/4] x6 | x6 | x6 | x6 | x6 | x2[K:bass] x4 | x6 |[M:2/4] x4 |] %26
V:4
 x6 | x3[K:treble] x3 | x6 | z E,- E,4 | x6 | x6 | x6 | x6 | x6 | x6 | x6 | x6 | x6 | %13
 x3[K:treble] x3 | x6 | x6 |[M:2/4] x4 |[M:1/4] x2 |[M:3/4] x6 | x6 | x6 | x6 | x6 | %23
 x2[K:bass] x4 | x6 |[M:2/4] x4 |] %26
V:5
 x6 | x6 | x6 | x6 | A,6 | x6 | x6 | x6 | x6 | x6 | x6 | c4 z2 | x6 | x6 | x6 | x6 |[M:2/4] x4 | %17
[M:1/4] x2 |[M:3/4] x6 | x6 | x6 | x6 | x6 | x6 | x6 |[M:2/4] x4 |] %26
V:6
 x6 | x6 | x6 | x6 | x6 | x6 | x6 | x6 | x6 | x6 | x6 | z2 A2 A2 | x6 | x6 | x6 | x6 |[M:2/4] x4 | %17
[M:1/4] x2 |[M:3/4] x6 | x6 | x6 | x6 | x6 | x6 | x6 |[M:2/4] x4 |] %26

